public/icon/svg/Audiobookshelf.svg

<?xml version="1.0" encoding="UTF-8"?>
<svg width="1024px" height="1024px" viewBox="0 0 1024 1024" version="1.1" xmlns="http://www.w3.org/2000/svg" xmlns:xlink="http://www.w3.org/1999/xlink">
    <title>Audiobookshelf</title>
    <defs>
        <linearGradient x1="50%" y1="-3.86209739e-15%" x2="50%" y2="100%" id="linearGradient-1">
            <stop stop-color="#CD9D49" offset="32%"></stop>
            <stop stop-color="#875D27" offset="99%"></stop>
        </linearGradient>
    </defs>
    <g id="Icon-SVG" stroke="none" stroke-width="1" fill="none" fill-rule="evenodd">
        <g id="Audiobookshelf" transform="translate(0, -0.0008)">
            <rect id="蒙版路径" fill="#CD9D49" x="0" y="0" width="1024" height="1024"></rect>
            <g id="编组" transform="translate(92, 92.0008)" fill-rule="nonzero">
                <g id="Layer_4">
                    <g id="Layer_5" fill="#FFFFFF">
                        <circle id="circle90" cx="420" cy="420" r="420"></circle>
                    </g>
                    <circle id="circle93" fill="url(#linearGradient-1)" cx="419.144561" cy="420" r="405.946365"></circle>
                </g>
                <path d="M682.70113,389.754134 C679.415159,387.038456 674.302895,382.964939 667.371127,378.212502 L667.371127,324.442074 C667.371127,187.347849 556.238786,76.2087193 419.144561,76.2087193 L419.144561,76.2087193 C282.050337,76.2087193 170.911207,187.347849 170.911207,324.442074 L170.911207,378.212502 C163.979438,382.964939 158.867174,387.038456 155.581204,389.754134 C152.776188,392.091865 151.147798,395.553245 151.147798,399.204694 L151.147798,463.62737 C151.136281,467.297816 152.76157,470.782356 155.581204,473.132244 C163.246205,479.514088 180.830222,492.888803 208.211047,506.609767 L208.211047,512.869405 C208.211047,529.760923 219.07376,543.420785 232.543524,543.420785 L232.543524,543.420785 C245.979341,543.420785 256.876,529.733767 256.876,512.869405 L256.876,358.354105 C256.876,341.469376 245.979341,327.802725 232.543524,327.802725 L232.543524,327.802725 C219.644052,327.802725 209.134378,340.369526 208.27215,356.276611 L208.211047,356.276611 L208.211047,324.435284 C208.211047,207.939479 302.648756,113.50177 419.144561,113.50177 L419.144561,113.50177 C535.633577,113.50177 630.071287,207.939479 630.071287,324.435284 L630.071287,356.276611 L630.016973,356.276611 C629.154745,340.369526 618.617914,327.802725 605.73881,327.802725 L605.73881,327.802725 C592.302992,327.802725 581.413123,341.496533 581.413123,358.354105 L581.413123,512.855827 C581.413123,529.747345 592.275835,543.407206 605.73881,543.407206 L605.73881,543.407206 C619.181417,543.407206 630.071287,529.720188 630.071287,512.855827 L630.071287,506.596188 C657.452112,492.875224 675.042917,479.500509 682.70113,473.118665 C685.520763,470.768778 687.146053,467.284237 687.134536,463.613792 L687.134536,399.204694 C687.134536,395.553245 685.506146,392.091865 682.70113,389.754134 Z" id="path96" fill="#FFFFFF"></path>
                <path d="M332.582319,658.355075 C348.816401,658.355075 361.975788,645.19194 361.979535,628.957858 L361.979535,299.838029 C361.975786,283.605046 348.815302,270.447602 332.582319,270.447602 L302.221037,270.447602 C285.988053,270.447602 272.827569,283.605046 272.82382,299.838029 L272.82382,628.957858 C272.827568,645.19194 285.986955,658.355075 302.221037,658.355075 L332.582319,658.355075 Z M283.910577,349.378789 L350.899568,349.378789 L350.899568,356.378449 L283.910577,356.378449 L283.910577,349.378789 Z" id="path98" fill="#FFFFFF"></path>
                <path d="M434.325202,658.355075 C450.552882,658.343832 463.702051,645.185542 463.702051,628.957858 L463.702051,299.838029 C463.702051,283.606144 450.543509,270.447602 434.311624,270.447602 L403.957131,270.447602 C387.725246,270.447602 374.566704,283.606144 374.566704,299.838029 L374.566704,628.957858 C374.566704,645.190842 387.724148,658.355075 403.957131,658.355075 L434.325202,658.355075 Z M385.626303,349.378789 L452.635663,349.378789 L452.635663,356.378449 L385.626303,356.378449 L385.626303,349.378789 Z" id="path100" fill="#FFFFFF"></path>
                <path d="M536.068086,658.355075 C552.301069,658.355075 565.458513,645.190842 565.458513,628.957858 L565.458513,299.838029 C565.458513,283.606144 552.299971,270.447602 536.068086,270.447602 L505.700015,270.447602 C489.467031,270.447602 476.306547,283.605046 476.302798,299.838029 L476.302798,628.957858 C476.306546,645.19194 489.465933,658.355075 505.700015,658.355075 L536.068086,658.355075 Z M487.389554,349.378789 L554.378546,349.378789 L554.378546,356.378449 L487.389554,356.378449 L487.389554,349.378789 Z" id="path102" fill="#FFFFFF"></path>
                <rect id="rect104" fill="#FFFFFF" x="199.941807" y="668.52529" width="438.405509" height="44.2995005" rx="22.1497503"></rect>
            </g>
        </g>
    </g>
</svg>

<svg xmlns="http://www.w3.org/2000/svg" width="1024" height="1024"><defs><linearGradient id="a" x1="50%" x2="50%" y1="0%" y2="100%"><stop offset="32%" stop-color="#CD9D49"/><stop offset="99%" stop-color="#875D27"/></linearGradient></defs><g fill="none" fill-rule="evenodd"><path fill="#CD9D49" d="M0 0h1024v1024H0z"/><g fill-rule="nonzero" transform="translate(92 92)"><circle cx="420" cy="420" r="420" fill="#FFF"/><circle cx="419.145" cy="420" r="405.946" fill="url(#a)"/><path fill="#FFF" d="M682.701 389.754a211.412 211.412 0 0 0-15.33-11.541v-53.77c0-137.095-111.132-248.234-248.226-248.234-137.095 0-248.234 111.139-248.234 248.233v53.77a211.412 211.412 0 0 0-15.33 11.542 12.308 12.308 0 0 0-4.433 9.45v64.423a12.323 12.323 0 0 0 4.433 9.505c7.665 6.382 25.25 19.757 52.63 33.478v6.26c0 16.89 10.863 30.55 24.333 30.55 13.435 0 24.332-13.686 24.332-30.55V358.353c0-16.885-10.897-30.551-24.332-30.551-12.9 0-23.41 12.567-24.272 28.474h-.061v-31.842c0-116.496 94.438-210.933 210.934-210.933 116.489 0 210.926 94.437 210.926 210.933v31.842h-.054c-.862-15.907-11.4-28.474-24.278-28.474-13.436 0-24.326 13.694-24.326 30.551v154.502c0 16.891 10.863 30.551 24.326 30.551 13.442 0 24.332-13.687 24.332-30.551v-6.26c27.381-13.72 44.972-27.095 52.63-33.477a12.323 12.323 0 0 0 4.434-9.505v-64.41c0-3.65-1.629-7.112-4.434-9.45"/><path fill="#FFF" d="M332.582 658.355c16.234 0 29.394-13.163 29.398-29.397v-329.12c-.004-16.233-13.165-29.39-29.398-29.39h-30.361c-16.233 0-29.393 13.157-29.397 29.39v329.12c.004 16.234 13.163 29.397 29.397 29.397h30.361M283.911 349.38H350.9v7h-66.99v-7M434.325 658.355c16.228-.011 29.377-13.17 29.377-29.397v-329.12c0-16.232-13.158-29.39-29.39-29.39h-30.355c-16.232 0-29.39 13.158-29.39 29.39v329.12c0 16.233 13.157 29.397 29.39 29.397h30.368M385.626 349.38h67.01v7h-67.01v-7M536.068 658.355c16.233 0 29.39-13.164 29.39-29.397v-329.12c0-16.232-13.158-29.39-29.39-29.39H505.7c-16.233 0-29.393 13.157-29.397 29.39v329.12c.004 16.234 13.163 29.397 29.397 29.397h30.368M487.39 349.38h66.989v7h-66.99v-7"/><rect width="438.406" height="44.3" x="199.942" y="668.525" fill="#FFF" rx="22.15"/></g></g></svg>
